X: 2553
T: Ballyhoura Mountains, The
R: polka
M: 2/4
K: Amajor
|:B|ce/c/ BA|FA- AB|ce/c/ BA|B/c/e fe|
e/f/e/c/ BA|FA- AB|cB/c/ ec|BA A:|
|:c/e/|aa/f/ ec|B/c/e fg|a>f ec|B/c/e Bc/e/|
a>f ec|e/f/e/c/ BA/B/|cB/c/ ec|BA A:|

